X:1
T:Calvary (Squires), 86.86.86
T:Calvary (Squires), 86.86.86
T:William Henry Squires, 1895
T:Public Domain Courtesy of the Cyber Hymnal™
C:William Henry Squires, 1895
Z:Public Domain
Z:Courtesy of the Cyber Hymnal™
%%score ( 1 2 ) 3
L:1/8
Q:1/4=107
M:2/4
K:E
V:1 treble 
V:2 treble 
V:3 bass 
V:1
 ([EG][EG]) [EG][EG] | [EA]2 [EG]2 | [DG]2 [DF]2 | E2 [EB]2 | [DF]2 [=DG]2 | [CA]2 [EG]2 | F4 | %7
 ([EB][EB]) [EB][EB] | [EA]2 [DF]2 | [EG]2 [EA]2 | [DF]2 ([=DG][DG]) | [CA]2 [Cc]2 | [EG]2 [DF]2 | %13
 [B,E]4 | ([DF][DF]) [EG][DA] | [EG]2 [EB]2 | [Ec]2 [EA]2 | [DF]2 ([FB][FB]) | [Ge]2 [EG]2 | %19
 [EA]2 [DF]2 | [B,E]2 x2 |] %21
V:2
 x4 | x4 | x4 | E2 x2 | x4 | x4 | F4 | x4 | x4 | x4 | x4 | x4 | x4 | x4 | x4 | x4 | x4 | x4 | x4 | %19
 x4 | x4 |] %21
V:3
 ([E,B,][E,B,]) [E,B,][E,B,] | [E,C]2 [E,B,]2 | [B,,B,]2 [B,,A,]2 | [C,G,]2 [G,,E]2 | %4
 [B,,B,]2 [E,B,]2 | [A,,A,]2 [E,B,]2 | [B,,B,]4 | ([G,B,][G,B,]) [G,B,][G,B,] | [F,C]2 [B,,B,]2 | %9
 [E,B,]2 [A,,C]2 | [B,,B,]2 ([E,B,][E,B,]) | [A,,A,]2 [A,,E]2 | [B,,B,]2 [B,,A,]2 | [E,G,]4 | %14
 ([B,,B,][B,,B,]) [B,,B,][B,,B,] | [E,B,]2 [E,G,]2 | [A,,A,]2 [F,,C]2 | [B,,B,]2 ([A,,D][A,,D]) | %18
 [G,,E]2 [C,C]2 | [F,,C]2 [B,,A,]2 | [E,,E,G,]4 |] %21

